images/whats-app.svg

<svg width="40" height="40" viewBox="0 0 40 40" fill="none" xmlns="http://www.w3.org/2000/svg">
<path d="M27.8711 23.4336C27.4453 23.2148 25.3242 22.1758 24.9297 22.0352C24.5351 21.8867 24.2461 21.8164 23.9609 22.2539C23.6719 22.6875 22.8516 23.6523 22.5937 23.9453C22.3437 24.2344 22.0898 24.2695 21.6641 24.0547C19.1328 22.7891 17.4727 21.7969 15.8047 18.9336C15.3633 18.1719 16.2461 18.2266 17.0703 16.582C17.2109 16.293 17.1406 16.0469 17.0312 15.8281C16.9219 15.6094 16.0625 13.4922 15.7031 12.6289C15.3555 11.7891 14.9961 11.9062 14.7344 11.8906C14.4844 11.875 14.1992 11.875 13.9102 11.875C13.6211 11.875 13.1562 11.9844 12.7617 12.4102C12.3672 12.8438 11.2539 13.8867 11.2539 16.0039C11.2539 18.1211 12.7969 20.1719 13.0078 20.4609C13.2266 20.75 16.043 25.0937 20.3672 26.9648C23.1016 28.1445 24.1719 28.2461 25.5391 28.043C26.3711 27.918 28.0859 27.0039 28.4414 25.9922C28.7969 24.9844 28.7969 24.1211 28.6914 23.9414C28.5859 23.75 28.2969 23.6406 27.8711 23.4336Z" fill="white"/>
<path d="M36.1406 13.2188C35.2578 11.1211 33.9922 9.23828 32.3789 7.62109C30.7656 6.00781 28.8828 4.73828 26.7812 3.85938C24.6328 2.95703 22.3515 2.5 20 2.5H19.9219C17.5547 2.51172 15.2617 2.98047 13.1054 3.90234C11.0234 4.79297 9.15623 6.05859 7.55857 7.67188C5.96092 9.28516 4.70701 11.1602 3.83982 13.25C2.94138 15.4141 2.48826 17.7148 2.49998 20.082C2.5117 22.793 3.16013 25.4844 4.37498 27.8906V33.8281C4.37498 34.8203 5.17967 35.625 6.17185 35.625H12.1133C14.5195 36.8398 17.2109 37.4883 19.9219 37.5H20.0039C22.3437 37.5 24.6133 37.0469 26.75 36.1602C28.8398 35.2891 30.7187 34.0391 32.3281 32.4414C33.9414 30.8438 35.2109 28.9766 36.0976 26.8945C37.0195 24.7383 37.4883 22.4453 37.5 20.0781C37.5117 17.6992 37.0508 15.3906 36.1406 13.2188ZM30.2383 30.3281C27.5 33.0391 23.8672 34.5312 20 34.5312H19.9336C17.5781 34.5195 15.2383 33.9336 13.1719 32.832L12.8437 32.6562H7.34373V27.1562L7.16795 26.8281C6.06638 24.7617 5.48045 22.4219 5.46873 20.0664C5.4531 16.1719 6.94138 12.5156 9.67185 9.76172C12.3984 7.00781 16.0429 5.48438 19.9375 5.46875H20.0039C21.957 5.46875 23.8515 5.84766 25.6367 6.59766C27.3789 7.32812 28.9414 8.37891 30.2851 9.72266C31.625 11.0625 32.6797 12.6289 33.4101 14.3711C34.1679 16.1758 34.5469 18.0898 34.539 20.0664C34.5156 23.957 32.9883 27.6016 30.2383 30.3281Z" fill="white"/>
</svg>

<svg xmlns="http://www.w3.org/2000/svg" width="40" height="40" fill="none"><path fill="#fff" d="M27.871 23.434c-.426-.22-2.547-1.258-2.941-1.399-.395-.148-.684-.219-.97.219-.288.433-1.108 1.398-1.366 1.691-.25.29-.504.325-.93.11-2.531-1.266-4.191-2.258-5.86-5.121-.44-.762.442-.707 1.266-2.352.14-.289.07-.535-.039-.754-.11-.219-.968-2.336-1.328-3.2-.348-.839-.707-.722-.969-.737-.25-.016-.535-.016-.824-.016-.289 0-.754.11-1.148.535-.395.434-1.508 1.477-1.508 3.594s1.543 4.168 1.754 4.457c.219.289 3.035 4.633 7.36 6.504 2.734 1.18 3.804 1.281 5.171 1.078.832-.125 2.547-1.04 2.902-2.05.356-1.009.356-1.872.25-2.052-.105-.191-.394-.3-.82-.507Z"/><path fill="#fff" d="M36.14 13.219A17.505 17.505 0 0 0 32.38 7.62 17.357 17.357 0 0 0 26.78 3.86 17.416 17.416 0 0 0 20 2.5h-.078A17.46 17.46 0 0 0 7.559 7.672a17.342 17.342 0 0 0-3.72 5.578A17.506 17.506 0 0 0 2.5 20.082c.012 2.711.66 5.402 1.875 7.809v5.937c0 .992.805 1.797 1.797 1.797h5.941a17.554 17.554 0 0 0 7.809 1.875h.082c2.34 0 4.61-.453 6.746-1.34a17.363 17.363 0 0 0 5.578-3.719A17.458 17.458 0 0 0 37.5 20.078a17.433 17.433 0 0 0-1.36-6.86Zm-5.902 17.11A14.454 14.454 0 0 1 20 34.53h-.066a14.582 14.582 0 0 1-6.762-1.699l-.328-.176h-5.5v-5.5l-.176-.328a14.582 14.582 0 0 1-1.7-6.762c-.015-3.894 1.473-7.55 4.204-10.304 2.726-2.754 6.37-4.278 10.265-4.293h.067c1.953 0 3.848.379 5.633 1.129a14.437 14.437 0 0 1 4.648 3.125 14.457 14.457 0 0 1 3.125 4.648 14.47 14.47 0 0 1 1.129 5.695c-.023 3.891-1.55 7.536-4.3 10.262Z"/></svg>
